packages/ui-icons/src/Basic/24/Instagram_24.svg

<svg xmlns="http://www.w3.org/2000/svg" viewBox="0 0 32 32"><path d="M9.4 28h13.2a5.41 5.41 0 0 0 5.4-5.4V9.4A5.41 5.41 0 0 0 22.6 4H9.4A5.41 5.41 0 0 0 4 9.4v13.2A5.41 5.41 0 0 0 9.4 28ZM6 9.4A3.4 3.4 0 0 1 9.4 6h13.2A3.4 3.4 0 0 1 26 9.4v13.2a3.4 3.4 0 0 1-3.4 3.4H9.4A3.4 3.4 0 0 1 6 22.6Z"/><path d="M16 22a6 6 0 1 0-6-6 6 6 0 0 0 6 6Zm0-10a4 4 0 1 1-4 4 4 4 0 0 1 4-4Z"/><circle cx="22.5" cy="9.5" r="1.5"/></svg>

<svg id="Ready" xmlns="http://www.w3.org/2000/svg" viewBox="0 0 32 32"><title>Megaicons_work_24_1.8_cp</title><path d="M9.4,28H22.6A5.41,5.41,0,0,0,28,22.6V9.4A5.41,5.41,0,0,0,22.6,4H9.4A5.41,5.41,0,0,0,4,9.4V22.6A5.41,5.41,0,0,0,9.4,28ZM6,9.4A3.4,3.4,0,0,1,9.4,6H22.6A3.4,3.4,0,0,1,26,9.4V22.6A3.4,3.4,0,0,1,22.6,26H9.4A3.4,3.4,0,0,1,6,22.6Z"/><path d="M16,22a6,6,0,1,0-6-6A6,6,0,0,0,16,22Zm0-10a4,4,0,1,1-4,4A4,4,0,0,1,16,12Z"/><circle cx="22.5" cy="9.5" r="1.5"/></svg>
